public_html/images/ico/social.svg

<svg viewBox="0 0 210 28" version="1.1" xmlns="http://www.w3.org/2000/svg">
    <g stroke="none" stroke-width="1" fill="none" fill-rule="evenodd">
        <path fill="#6A7582" d="M110.371689,13.990189 C110.371689,6.53992551 116.41284,0.5 123.863104,0.5 C131.314594,0.5 137.354519,6.53992551 137.354519,13.990189 C137.354519,21.4404524 131.314594,27.4803779 123.863104,27.4803779 C116.41284,27.4803779 110.371689,21.4404524 110.371689,13.990189 L110.371689,13.990189 Z M129.331536,6.63190407 L118.393445,6.63190407 C117.354701,6.63190407 116.503593,7.48178597 116.503593,8.52053052 L116.503593,19.458621 C116.503593,20.4973656 117.354701,21.3472475 118.393445,21.3472475 L129.331536,21.3472475 C130.370281,21.3472475 131.220162,20.4973656 131.220162,19.458621 L131.220162,12.5578145 L131.220162,8.52053052 C131.220162,7.48178597 130.370281,6.63190407 129.331536,6.63190407 L129.331536,6.63190407 L129.331536,6.63190407 Z M128.972206,19.6560683 L118.724568,19.6560683 C118.40203,19.6560683 118.139585,19.3923964 118.139585,19.0710847 L118.139585,12.8545603 L119.491056,12.8545603 C119.368418,13.2555868 119.302194,13.6786882 119.302194,14.1177326 C119.302194,16.5655887 121.35025,18.5498728 123.876594,18.5498728 C126.401712,18.5498728 128.449768,16.5655887 128.449768,14.1177326 C128.449768,13.6786882 128.383544,13.2555868 128.262132,12.8545603 L129.55719,12.8545603 L129.55719,19.0710847 C129.55719,19.3923964 129.293518,19.6560683 128.972206,19.6560683 L128.972206,19.6560683 L128.972206,19.6560683 Z M128.887586,11.1768714 L127.224614,11.1768714 C126.859152,11.1768714 126.561142,10.8788608 126.561142,10.5146257 L126.561142,8.92891533 C126.561142,8.56468023 126.859152,8.26666969 127.224614,8.26666969 L128.887586,8.26666969 C129.251821,8.26666969 129.549832,8.56468023 129.549832,8.92891533 L129.549832,10.5146257 C129.549832,10.8788608 129.251821,11.1768714 128.887586,11.1768714 L128.887586,11.1768714 L128.887586,11.1768714 Z M123.876594,16.8219023 C122.244281,16.8219023 120.921016,15.5391079 120.921016,13.9570767 C120.921016,12.3762718 122.244281,11.0934775 123.876594,11.0934775 C125.508907,11.0934775 126.832172,12.3762718 126.832172,13.9570767 C126.832172,15.5391079 125.508907,16.8219023 123.876594,16.8219023 L123.876594,16.8219023 L123.876594,16.8219023 Z M87.0716795,27.4803779 C79.6214161,27.4803779 73.5802642,21.4404524 73.5802642,13.990189 C73.5802642,6.53992551 79.6214161,0.5 87.0716795,0.5 C94.5231693,0.5 100.563095,6.53992551 100.563095,13.990189 C100.563095,21.4404524 94.5231693,27.4803779 87.0716795,27.4803779 L87.0716795,27.4803779 L87.0716795,27.4803779 Z M95.0063634,9.63531068 C94.4643031,9.87936047 93.8817722,10.0436955 93.2710345,10.1172783 C93.894036,9.73832667 94.3735509,9.13862645 94.5992049,8.42364644 C94.0154477,8.77439135 93.369145,9.02947856 92.679919,9.16683321 C92.129274,8.57203852 91.3443903,8.20044513 90.4748863,8.20044513 C88.8070084,8.20044513 87.4543103,9.5703125 87.4543103,11.2614916 C87.4543103,11.5018623 87.4812907,11.7348746 87.5327987,11.9593023 C85.0211708,11.8317587 82.7952896,10.6127362 81.3052369,8.76090116 C81.0452442,9.21343568 80.8968521,9.73832667 80.8968521,10.3000091 C80.8968521,11.3620549 81.4303278,12.2990098 82.2409655,12.847202 C81.7455076,12.8312591 81.2794829,12.6939044 80.8723245,12.4645712 L80.8723245,12.5038154 C80.8723245,13.9865098 81.9135218,15.2239281 83.295653,15.5047693 C83.0417922,15.574673 82.7744411,15.6126908 82.4997318,15.6126908 C82.3047373,15.6126908 82.1158746,15.5930687 81.9306911,15.5575036 C82.3157747,16.7740734 83.4305549,17.658294 84.7525934,17.684048 C83.7187544,18.5044967 82.4163379,18.9938227 81.0010945,18.9938227 C80.7570447,18.9938227 80.5166741,18.9791061 80.2799826,18.9508993 C81.617964,19.819177 83.2049008,20.3268986 84.9107965,20.3268986 C90.4687544,20.3268986 93.5064996,15.661746 93.5064996,11.6159157 C93.5064996,11.4834666 93.5040469,11.3522438 93.497915,11.2197947 C94.0890305,10.789335 94.6004313,10.2497275 95.0063634,9.63531068 L95.0063634,9.63531068 L95.0063634,9.63531068 Z M50.2888398,27.5 C42.8373499,27.5 36.7974244,21.4600745 36.7974244,14.0085847 C36.7974244,6.55832122 42.8373499,0.518395712 50.2888398,0.518395712 C57.7391032,0.518395712 63.7790287,6.55832122 63.7790287,14.0085847 C63.7790287,21.4600745 57.7391032,27.5 50.2888398,27.5 L50.2888398,27.5 L50.2888398,27.5 Z M55.6689724,10.995367 C55.6689724,9.75181686 54.9196537,7.88771802 51.9726606,7.88771802 L46.0112235,7.88771802 L46.0112235,20.0840752 L51.207399,20.0840752 C55.6689724,20.0840752 56.0516032,17.4804687 56.0516032,16.4392714 C56.0516032,15.2460029 55.6849153,14.0699037 54.2034473,13.5155796 C54.7038107,13.2629451 55.6689724,12.7429597 55.6689724,10.995367 L55.6689724,10.995367 L55.6689724,10.995367 Z M51.5900298,17.9845113 L48.5265305,17.9845113 L48.5265305,14.7088481 L51.7224789,14.7088481 C52.6385854,14.7088481 53.5375225,15.1282703 53.5375225,16.186637 C53.5375225,17.4301871 52.8213161,17.9845113 51.5900298,17.9845113 L51.5900298,17.9845113 L51.5900298,17.9845113 Z M51.4735236,12.6583394 L48.5265305,12.6583394 L48.5265305,9.98728198 L51.4060727,9.98728198 C52.5551915,9.98728198 53.2542286,10.3073674 53.2542286,11.2982831 C53.2542286,12.2720294 52.4717976,12.6583394 51.4735236,12.6583394 L51.4735236,12.6583394 L51.4735236,12.6583394 Z M13.4974153,27.5 C6.04592551,27.5 0.006,21.4600745 0.006,14.0085847 C0.006,6.55832122 6.04592551,0.518395712 13.4974153,0.518395712 C20.9476788,0.518395712 26.9876043,6.55832122 26.9876043,14.0085847 C26.9876043,21.4600745 20.9476788,27.5 13.4974153,27.5 L13.4974153,27.5 L13.4974153,27.5 Z M19.6109237,13.9215116 L19.6109237,11.4442224 L17.2611781,11.4442224 L17.2611781,10.0571857 C17.2611781,9.40597747 17.7578623,8.87863372 18.3698263,8.87863372 L19.6109237,8.87863372 L19.6109237,6.64048874 L16.9190178,6.64048874 C15.2830258,6.64048874 14.2479604,7.89752907 14.2479604,9.63776344 L14.2479604,11.4442224 L12.2538652,11.4442224 L12.2538652,13.9215116 L14.2479604,13.9215116 L14.2479604,21.3349836 L17.2611781,21.3349836 L17.2611781,13.9215116 L19.6109237,13.9215116 Z M147.465264,14.009811 C147.465264,6.5595476 153.418083,0.519622093 160.75941,0.519622093 C168.101945,0.519622093 174.053556,6.5595476 174.053556,14.009811 C174.053556,21.4600745 168.101945,27.5 160.75941,27.5 C153.418083,27.5 147.465264,21.4600745 147.465264,14.009811 Z M162.282133,17.0614948 C163.048288,16.9002815 163.787195,16.6204974 164.467576,16.2256976 C164.982625,15.9260165 165.137869,15.2975053 164.813284,14.8219949 C164.489127,14.3454241 163.808745,14.2020704 163.292818,14.5017515 C161.751254,15.396907 159.766361,15.3965118 158.225675,14.5017515 C157.709771,14.2020704 157.029366,14.3454241 156.705659,14.8219949 C156.381074,15.2978171 156.535891,15.9260165 157.050917,16.2256976 C157.731321,16.6199984 158.470206,16.9002815 159.236383,17.0614948 L157.132277,19.0040579 C156.702147,19.4016021 156.702147,20.0460391 157.132728,20.4435834 C157.348231,20.642158 157.630167,20.7416428 157.912078,20.7416428 C158.194442,20.7416428 158.476803,20.642158 158.69233,20.4435834 L160.759033,18.5346392 L162.827491,20.4435834 C163.257644,20.8411484 163.955635,20.8411484 164.386216,20.4435834 C164.817247,20.0460391 164.817247,19.4012903 164.386216,19.0040579 L162.282133,17.0614948 Z M164.499576,11.1420459 C164.515049,11.014352 164.522995,10.884587 164.522995,10.7531387 C164.522995,8.83662666 162.835419,7.27786489 160.75946,7.27786489 C158.683976,7.27786489 156.995949,8.83662666 156.995949,10.7531387 C156.995949,12.668736 158.683976,14.2268532 160.75946,14.2268532 C162.692966,14.2268532 164.289563,12.8752353 164.499576,11.1420459 Z M160.75946,9.3143201 C161.618888,9.3143201 162.317757,9.95967196 162.317757,10.7531387 C162.317757,11.5457946 161.618888,12.1912089 160.75946,12.1912089 C159.900933,12.1912089 159.201186,11.5457946 159.201186,10.7531387 C159.201186,9.95967196 159.900933,9.3143201 160.75946,9.3143201 Z M196.302306,27.3078938 C203.705101,27.3078938 209.706253,21.3067424 209.706253,13.9039469 C209.706253,6.50115144 203.705101,0.5 196.302306,0.5 C188.89951,0.5 182.898359,6.50115144 182.898359,13.9039469 C182.898359,21.3067424 188.89951,27.3078938 196.302306,27.3078938 Z M195.795996,19.7827788 L196.84804,19.7827788 C196.84804,19.7827788 197.165828,19.7478938 197.328067,19.5729912 C197.477403,19.4124248 197.472624,19.110885 197.472624,19.110885 C197.472624,19.110885 197.452076,17.6992389 198.107244,17.4913628 C198.753093,17.2865929 199.582447,18.8556991 200.4615,19.4590177 C201.126226,19.9156283 201.631341,19.8155133 201.631341,19.8155133 L203.981775,19.7827788 C203.981775,19.7827788 205.21135,19.7070354 204.628341,18.740292 C204.580554,18.6612035 204.28881,18.0251504 202.880748,16.7181593 C201.406978,15.3502389 201.604341,15.5714956 203.379651,13.205292 C204.460846,11.7642566 204.893085,10.8844867 204.758085,10.5076814 C204.629297,10.1487965 203.834111,10.2436549 203.834111,10.2436549 L201.187633,10.2601416 C201.187633,10.2601416 200.991465,10.2333805 200.845952,10.320354 C200.703784,10.4056549 200.61227,10.6044513 200.61227,10.6044513 C200.61227,10.6044513 200.193412,11.7195752 199.634775,12.6679204 C198.456332,14.6690265 197.985146,14.7746372 197.792562,14.6503894 C197.344554,14.3607965 197.456377,13.487 197.456377,12.8662389 C197.456377,10.9270177 197.750509,10.1184513 196.883642,9.90914159 C196.595961,9.83961062 196.384262,9.79373451 195.648571,9.78632743 C194.704288,9.77653097 193.90504,9.78919469 193.452492,10.0109292 C193.15143,10.158354 192.919182,10.4868938 193.060633,10.5057699 C193.235536,10.5291858 193.631695,10.6125752 193.841722,10.8985841 C194.112916,11.2675044 194.103359,12.0961416 194.103359,12.0961416 C194.103359,12.0961416 194.259146,14.3789558 193.739456,14.6625752 C193.382722,14.8570708 192.893377,14.4599558 191.842766,12.6445044 C191.304439,11.7145575 190.898005,10.686646 190.898005,10.686646 C190.898005,10.686646 190.819633,10.4945398 190.679854,10.3917965 C190.510208,10.2673097 190.273182,10.227646 190.273182,10.227646 L187.758359,10.2441327 C187.758359,10.2441327 187.380837,10.254646 187.242253,10.4187965 C187.118961,10.5647876 187.232456,10.8668053 187.232456,10.8668053 C187.232456,10.8668053 189.201306,15.4730531 191.430598,17.7943363 C193.474713,19.9225575 195.795996,19.7827788 195.795996,19.7827788 Z"></path>
    </g>
</svg>

<svg viewBox="0 0 210 28" xmlns="http://www.w3.org/2000/svg"><path fill="#6A7582" d="M110.372 13.99c0-7.45 6.04-13.49 13.491-13.49 7.452 0 13.492 6.04 13.492 13.49s-6.04 13.49-13.492 13.49c-7.45 0-13.491-6.04-13.491-13.49zm18.96-7.358h-10.939c-1.038 0-1.89.85-1.89 1.889v10.938c0 1.038.852 1.888 1.89 1.888h10.939c1.038 0 1.888-.85 1.888-1.888V8.52c0-1.04-.85-1.89-1.888-1.89zm-.36 13.024h-10.247a.586.586 0 0 1-.585-.585v-6.216h1.351a4.308 4.308 0 0 0-.189 1.263c0 2.448 2.048 4.432 4.575 4.432 2.525 0 4.573-1.984 4.573-4.432 0-.44-.066-.862-.188-1.263h1.295v6.216a.587.587 0 0 1-.585.585zm-.084-8.48h-1.663a.664.664 0 0 1-.664-.661V8.929c0-.364.298-.662.664-.662h1.663c.364 0 .662.298.662.662v1.586a.664.664 0 0 1-.662.662zm-5.011 5.646c-1.633 0-2.956-1.283-2.956-2.865 0-1.58 1.323-2.864 2.956-2.864 1.632 0 2.955 1.283 2.955 2.864 0 1.582-1.323 2.865-2.955 2.865zM87.072 27.48c-7.45 0-13.492-6.04-13.492-13.49S79.621.5 87.072.5c7.451 0 13.491 6.04 13.491 13.49s-6.04 13.49-13.491 13.49zm7.934-17.845a5.954 5.954 0 0 1-1.735.482 3.067 3.067 0 0 0 1.328-1.693 6 6 0 0 1-1.92.743 2.997 2.997 0 0 0-2.204-.967c-1.668 0-3.02 1.37-3.02 3.061 0 .24.026.474.078.698a8.54 8.54 0 0 1-6.228-3.198c-.26.452-.408.977-.408 1.539 0 1.062.533 1.999 1.344 2.547a2.978 2.978 0 0 1-1.369-.382v.039a3.052 3.052 0 0 0 2.424 3 2.997 2.997 0 0 1-1.365.054 3.031 3.031 0 0 0 2.822 2.126 6.013 6.013 0 0 1-4.473 1.267 8.475 8.475 0 0 0 4.63 1.376c5.559 0 8.596-4.665 8.596-8.711a8.69 8.69 0 0 0-.008-.396 6.162 6.162 0 0 0 1.508-1.585zM50.29 27.5c-7.452 0-13.492-6.04-13.492-13.491 0-7.45 6.04-13.49 13.492-13.49 7.45 0 13.49 6.04 13.49 13.49 0 7.451-6.04 13.491-13.49 13.491zm5.38-16.505c0-1.243-.75-3.107-3.696-3.107H46.01v12.196h5.196c4.462 0 4.845-2.604 4.845-3.645 0-1.193-.367-2.37-1.849-2.923.5-.253 1.466-.773 1.466-2.52zm-4.079 6.99h-3.063v-3.276h3.195c.917 0 1.816.42 1.816 1.478 0 1.243-.717 1.798-1.948 1.798zm-.116-5.327h-2.947v-2.67h2.88c1.148 0 1.847.32 1.847 1.31 0 .974-.782 1.36-1.78 1.36zM13.497 27.5C6.046 27.5.006 21.46.006 14.009c0-7.45 6.04-13.49 13.491-13.49 7.45 0 13.49 6.04 13.49 13.49 0 7.451-6.04 13.491-13.49 13.491zm6.114-13.578v-2.478h-2.35v-1.387c0-.651.497-1.178 1.109-1.178h1.24V6.64h-2.69c-1.636 0-2.671 1.258-2.671 2.998v1.806h-1.994v2.478h1.994v7.413h3.013v-7.413h2.35zm127.854.088c0-7.45 5.953-13.49 13.294-13.49 7.343 0 13.295 6.04 13.295 13.49s-5.952 13.49-13.295 13.49c-7.34 0-13.294-6.04-13.294-13.49zm14.817 3.051a7.381 7.381 0 0 0 2.186-.835c.515-.3.67-.928.345-1.404-.324-.477-1.004-.62-1.52-.32a5.117 5.117 0 0 1-5.067 0c-.516-.3-1.197-.157-1.52.32-.325.476-.17 1.104.345 1.404a7.4 7.4 0 0 0 2.185.835l-2.104 1.943a.964.964 0 0 0 0 1.44c.216.198.498.298.78.298.282 0 .565-.1.78-.298l2.067-1.91 2.068 1.91a1.17 1.17 0 0 0 1.56 0 .963.963 0 0 0 0-1.44l-2.105-1.943zm2.218-5.919a3.33 3.33 0 0 0 .023-.389c0-1.916-1.688-3.475-3.764-3.475-2.075 0-3.763 1.559-3.763 3.475 0 1.916 1.688 3.474 3.763 3.474 1.934 0 3.53-1.352 3.74-3.085zm-3.74-1.828c.859 0 1.558.646 1.558 1.44 0 .792-.7 1.437-1.559 1.437-.858 0-1.558-.645-1.558-1.438 0-.793.7-1.439 1.558-1.439zm35.542 17.994c7.403 0 13.404-6.001 13.404-13.404S203.706.5 196.302.5c-7.402 0-13.404 6.001-13.404 13.404s6.002 13.404 13.404 13.404zm-.506-7.525h1.052s.318-.035.48-.21c.15-.16.145-.462.145-.462s-.02-1.412.634-1.62c.646-.204 1.475 1.365 2.355 1.968.664.457 1.17.357 1.17.357l2.35-.033s1.23-.076.646-1.043c-.047-.079-.34-.715-1.747-2.022-1.474-1.368-1.277-1.147.499-3.513 1.08-1.44 1.513-2.32 1.378-2.697-.129-.36-.924-.264-.924-.264l-2.646.016s-.197-.027-.342.06c-.142.086-.234.284-.234.284s-.419 1.116-.977 2.064c-1.179 2.001-1.65 2.107-1.842 1.982-.448-.29-.337-1.163-.337-1.784 0-1.939.295-2.748-.572-2.957-.288-.07-.5-.115-1.235-.123-.945-.01-1.744.003-2.197.225-.3.147-.533.476-.391.495.175.023.57.107.78.393.272.369.262 1.197.262 1.197s.156 2.283-.364 2.567c-.356.194-.846-.203-1.896-2.018-.539-.93-.945-1.958-.945-1.958s-.078-.192-.218-.295c-.17-.125-.407-.164-.407-.164l-2.515.016s-.377.01-.516.175c-.123.146-.01.448-.01.448s1.97 4.606 4.199 6.927c2.044 2.129 4.365 1.989 4.365 1.989z" fill-rule="evenodd"/></svg>
